assets/img/Github.svg

<svg xmlns="http://www.w3.org/2000/svg" width="39" height="39" viewBox="0 0 39 39">
  <path fill="#1EAB89" fill-rule="evenodd" d="M2,0 L37,0 C38.1045695,-2.02906125e-16 39,0.8954305 39,2 L39,37 C39,38.1045695 38.1045695,39 37,39 L2,39 C0.8954305,39 1.3527075e-16,38.1045695 0,37 L0,2 C-1.3527075e-16,0.8954305 0.8954305,2.02906125e-16 2,0 Z M11.4032448,19.8695513 C11.3680696,19.869466 11.7880775,20.7583855 11.799675,20.7581118 C12.7158693,22.3930136 14.4828154,23.4101897 17.4629638,23.6915363 C17.0375879,24.0087468 16.5266334,24.611014 16.4561569,25.3072694 C15.9212907,25.6473587 14.8458951,25.759279 14.0096161,25.5001928 C12.8379446,25.1366065 12.3892863,22.8567717 10.6349253,23.1814024 C10.2548557,23.2518936 10.3303662,23.4979946 10.658837,23.7069949 C11.1937031,24.0470841 11.6971066,24.4725049 12.0853565,25.378379 C12.383623,26.0740162 13.0103603,27.3168878 14.9925114,27.3168878 C15.7790793,27.3168878 16.330306,27.2241362 16.330306,27.2241362 C16.330306,27.2241362 16.3454081,28.9994022 16.3454081,29.6894742 C16.3454081,30.4852831 15.2523934,30.709742 15.2523934,31.092497 C15.2523934,31.2439913 15.6142146,31.2582132 15.9049301,31.2582132 C16.4794393,31.2582132 17.6750225,30.787035 17.6750225,29.9596906 C17.6750225,29.3023908 17.6857198,27.0924289 17.6857198,26.7059638 C17.6857198,25.8606874 18.1469632,25.5929444 18.1469632,25.5929444 C18.1469632,25.5929444 18.2042254,30.1050015 18.0368437,30.709742 C17.8405164,31.4208378 17.4862462,31.3200477 17.4862462,31.6372582 C17.4862462,32.1090548 18.9253508,31.7528885 19.4023256,30.7171621 C19.7710686,29.9108414 19.6099795,25.4847342 19.6099795,25.4847342 L20.0032634,25.4766957 C20.0032634,25.4766957 20.0252873,27.5030094 20.012073,28.4292889 C19.9982294,29.3883406 19.9321577,30.6015318 20.5117009,31.1735001 C20.8923998,31.5494533 22.1269967,32.2092265 22.1269967,31.606341 C22.1269967,31.2557399 21.4505483,30.9675915 21.4505483,30.0190516 L21.4505483,25.6547788 C21.9904485,25.6547788 21.9092747,27.0899555 21.9092747,27.0899555 L21.9489177,29.7562554 C21.9489177,29.7562554 21.8299887,30.727674 23.0180208,31.1345444 C23.4371042,31.2786186 24.3344208,31.3175743 24.3765809,31.0758017 C24.4187409,30.8334108 23.2961512,30.4729162 23.2860832,29.7203914 C23.2797906,29.2615801 23.3068485,28.9938371 23.3068485,26.9996773 C23.3068485,25.0055175 23.0343814,24.2684513 22.0848367,23.6810244 C25.015274,23.3848376 26.8287849,22.6724433 27.7128872,20.7642952 C27.7819213,20.7665228 28.0727878,19.8729532 28.0350654,19.8732613 C28.2332805,19.1528904 28.3402538,18.3008122 28.3616484,17.2916746 C28.3566144,14.5555019 27.0238537,13.5877934 26.7677472,13.1333104 C27.1452998,11.0618576 26.7048218,10.1188829 26.5003142,9.79548888 C25.745209,9.53145594 23.8731774,10.4744307 22.8506392,11.1391507 C21.1831153,10.659934 17.6592911,10.7063098 16.3378571,11.2628195 C13.8994966,9.54691455 12.6095253,9.8097108 12.6095253,9.8097108 C12.6095253,9.8097108 11.7757634,11.2782781 12.3892863,13.4270239 C11.5869871,14.4318331 10.9891955,15.1429288 10.9891955,17.0276417 C10.9891955,18.0893385 11.1163048,19.0397335 11.4032448,19.8695513 Z"/>
</svg>

<?xml version="1.0" encoding="UTF-8" standalone="no"?>
<svg width="39" xmlns="http://www.w3.org/2000/svg" viewBox="0 0 39 39" height="39">
 <path fill-rule="evenodd" d="m2 0h35c1.105-2.0291e-16 2 0.89543 2 2v35c0 1.105-0.895 2-2 2h-35c-1.1046 0-2-0.895-2-2v-35c-1.3527e-16 -1.1046 0.89543-2 2-2zm9.403 19.87c-0.035-0.001 0.385 0.888 0.397 0.888 0.916 1.635 2.683 2.652 5.663 2.934-0.425 0.317-0.936 0.919-1.007 1.615-0.535 0.34-1.61 0.452-2.446 0.193-1.172-0.363-1.621-2.643-3.375-2.319-0.38 0.071-0.305 0.317 0.024 0.526 0.535 0.34 1.038 0.766 1.426 1.671 0.299 0.696 0.925 1.939 2.908 1.939 0.786 0 1.337-0.093 1.337-0.093s0.015 1.775 0.015 2.465c0 0.796-1.093 1.021-1.093 1.403 0 0.152 0.362 0.166 0.653 0.166 0.574 0 1.77-0.471 1.77-1.298 0-0.658 0.011-2.868 0.011-3.254 0-0.845 0.461-1.113 0.461-1.113s0.057 4.512-0.11 5.117c-0.196 0.711-0.551 0.61-0.551 0.927 0 0.472 1.439 0.116 1.916-0.92 0.369-0.806 0.208-5.232 0.208-5.232l0.393-0.008s0.022 2.026 0.009 2.952c-0.014 0.959-0.08 2.173 0.5 2.745 0.38 0.375 1.615 1.035 1.615 0.432 0-0.35-0.676-0.638-0.676-1.587v-4.364c0.539 0 0.458 1.435 0.458 1.435l0.04 2.666s-0.119 0.972 1.069 1.379c0.419 0.144 1.316 0.183 1.359-0.059 0.042-0.243-1.081-0.603-1.091-1.356-0.006-0.458 0.021-0.726 0.021-2.72s-0.273-2.732-1.222-3.319c2.93-0.296 4.744-1.009 5.628-2.917 0.069 0.003 0.36-0.891 0.322-0.891 0.198-0.72 0.305-1.572 0.327-2.581-0.005-2.736-1.338-3.704-1.594-4.159 0.377-2.071-0.063-3.014-0.268-3.3375-0.755-0.264-2.627 0.6785-3.649 1.3435-1.668-0.479-5.192-0.433-6.513 0.124-2.439-1.7161-3.728-1.4533-3.728-1.4533s-0.834 1.4683-0.221 3.6173c-0.802 1.005-1.4 1.716-1.4 3.601 0 1.061 0.127 2.012 0.414 2.842z" fill="#1EAB89"/>
</svg>
